X: 9
T:Kas ar barh
R:andro
S:Le Féon-Léhart
D:Evit Dansal
M:4/4
L:1/8
K:C
|:EF/E/ GG/G/ A^c BG|EF E/B/^c/B/ EF/E/ GG/G/|1A^c BG EF E2:|2A^c BE/F/ G/E/F/G/ E2||
BB/B/ GG/B/ AA/B/ GE|BB/B/ GG/B/ AG/F/ E2|B^c/B/ GG/B/ AA/B/ GE|B^c/B/ GG/B/ AF/G/ EB|
|:FE/F/ GG FE/F/ G>G |A^c BA G/A/G/E/ B/^c/B|G/F/E/F/ GA FE/F/ G>G |1A^c BG EF E2:|2A^c
BE/F/ G/A/G/F/ E2||

